X:201
T:Stay where you are
%C:anon.
%O:Ireland
B:Francis O'Neill: "The Dance Music of Ireland" (1907) no. 327
R:Double jig
Z:Transcribed by Frank Nordberg - http://www.musicaviva.com
%http://www.musicaviva.com/oneill-1001-301-400.abc
%m:Tn2 = (3n/o/n/ m/n/
%m:T=c2 = (3c/d/c/ B/c/
M:6/8
L:1/8
K:D
P:A
ABc|"D"dcd ABc|d2A AGE|dcd ABc|"Em"def "A7"gfe|\
"D"dcd ABc|d2A AGE|"G6"GAG EDE|"A7"c3:|
P:B
|:ABc|"D"d2e fed|"A"ecA AcA|"Bm7"d2e fed|"G"faf "A7"gfe|\
"D"d2e "(A/C#)"fed|"Bm7"ecA "(A)"AGF|"G6"GFG EDE|"A7"c3:|
P:C
|:ABc|"D"d2A "A7"c2A|"D"d2A ABc|"D"d2A c2A|"G"def "A7"gfe|\
"D"d2A "C"=c2A|"G/B"B2G "A"A2F|"G6"GAG EDE|"A7"c3:|
"last"ABc|"D".d|]
T:Harmony 1
P:A
ABc|"D"d6-|d2A ABc|d6-|"Em"d2A "A7"ABc|"D"d6-|d2A AGE|"G6"G2G GAB|"A7"A3:|
P:B
|:ABc|"D"d6|"A"A6|"Bm7"B6|"G"G2G "A7"ABc|"D"d3 "A"c3|"Bm7"B3 "A"A3|"G6"G3 F3|"A7"E2A:|
P:C
|:cBc|"D"f3 "A7"e3|"D".d2z z3|"D"f3 e3|"G".d2z "A7"z3|\
"D"f3 "C"e3|"G"d3 "A"c3|"G"B2c dcB|"A7"c3:|
T:Harmony 2
P:A
BAG|F6-|F2B BAG|F6-|F2B BAG|F2F FEF|G6|F2F FEF|G3:|
P:B
|:BAG|F6|E6|D6|C6|D3 A3|F3 G3|B3 G3|A3:|
% copied from Harmony 1, down an octave
P:C
|:CB,C|F3 E3|.D2z z3|F3 E3|.D2z z3|\
F3 E3|D3 C3|B,2C DCB,|C3:|



%%newpage
%%textfont * 20
%%text 48J2 (2.0)
%%textfont * 12



